assets/svg/networks/wallet_kaspa.svg

<svg width="36" height="36" viewBox="0 0 36 36" fill="none" xmlns="http://www.w3.org/2000/svg">
<g clip-path="url(#clip0_52314_201697)">
<rect width="36" height="36" rx="10" fill="#71C9BB"/>
<path d="M25.5881 17.6344L23.7857 6H23.7734L19.447 6.79293C19.6269 7.57359 20.5526 14.6302 20.5526 14.6302L11.4176 7.9578L9 11.2399L16.7535 17.4423C16.7535 17.4423 10.2507 22.5391 9 23.5732L11.6097 26.8777C11.6097 26.8777 18.4252 21.7707 20.2277 20.3647C20.3605 20.2441 20.5036 20.2073 20.5404 20.2441C20.6119 20.3156 20.0356 24.1025 19.4102 28.0569L23.6876 29.0542C24.1944 25.437 25.0486 21.2659 25.5881 17.6344Z" fill="white"/>
</g>
<defs>
<clipPath id="clip0_52314_201697">
<rect width="36" height="36" fill="white"/>
</clipPath>
</defs>
</svg>

<svg xmlns="http://www.w3.org/2000/svg" width="36" height="36" fill="none"><g clip-path="url(#a)"><rect width="36" height="36" fill="#71C9BB" rx="10"/><path fill="#fff" d="M25.588 17.634 23.786 6h-.013l-4.326.793c.18.78 1.106 7.837 1.106 7.837l-9.135-6.672L9 11.24l7.753 6.202S10.252 22.54 9 23.573l2.61 3.305s6.815-5.107 8.618-6.513c.132-.12.276-.158.312-.12.072.07-.504 3.857-1.13 7.812l4.278.997c.506-3.617 1.36-7.788 1.9-11.42"/></g><defs><clipPath id="a"><path fill="#fff" d="M0 0h36v36H0z"/></clipPath></defs></svg>
